X: 31316
T: Paddy Kelly's
R: reel
M: 4/4
K: Gmajor
|:dBGB dBGB|cA=FD C=FAc|dcB2 BAGA|BdcA GABc|
dB~B2 BAGB|cA=FA cA=FA|dcB2 BAGA|1 BdcA G2ge:|2 BdcA G2Bc||
|:dggf g3e|dedc ABcA|dggf gagf|de=fg a^fgf|
dggf gage|dedc ABcA|dBBA BAGA|1 BdcA G2Bc:|2 BdcA G3A||

